images/labajainspira-itinerante/2024/divider.svg

<svg fill="none" height="24" viewBox="0 0 414 24" width="414" xmlns="http://www.w3.org/2000/svg"><g stroke="#008753" stroke-linecap="round" stroke-width="3"><path d="m2 14c136.625 0 273.553-2 410-2"/><path d="m398 12c-79.667 0-159.333 0-239 0-16.994 0-34.007.236-51 0-10.0528-.1396-24.2425.0145-33.8889-3-8.7753-2.74229-16.9374-3-26.1111-3"/><path d="m6 18h177.778c35.915 0 71.536-4 107.222-4 25.267 0 49.53-.5943 74.556-4.44444 3.924-.60377 34.434-3.5363 36.444-7.55556"/><path d="m408 18c-97.333 0-194.667 0-292 0-26.6409 0-51.666-8-78-8"/><path d="m22 18c119.369 0 238.64-2 358-2"/><path d="m246 10c-70.816 0-141.375 2-212 2"/><path d="m20 20c86.057 0 173.832 5.3486 259.556-2.4444 28.047-2.5498 56.257-3.5556 84.444-3.5556"/></g></svg>

<svg width="414" height="24" viewBox="0 0 414 24" fill="none" xmlns="http://www.w3.org/2000/svg">
<path d="M2 14C138.625 14 275.553 12 412 12" stroke="#008753" stroke-width="3" stroke-linecap="round"/>
<path d="M398 12C318.333 12 238.667 12 159 12C142.006 12 124.993 12.236 108 12C97.9472 11.8604 83.7575 12.0145 74.1111 9C65.3358 6.25771 57.1737 6 48 6" stroke="#008753" stroke-width="3" stroke-linecap="round"/>
<path d="M6 18C65.2593 18 124.519 18 183.778 18C219.693 18 255.314 14 291 14C316.267 14 340.53 13.4057 365.556 9.55556C369.48 8.95179 399.99 6.01926 402 2" stroke="#008753" stroke-width="3" stroke-linecap="round"/>
<path d="M408 18C310.667 18 213.333 18 116 18C89.3591 18 64.334 10 38 10" stroke="#008753" stroke-width="3" stroke-linecap="round"/>
<path d="M22 18C141.369 18 260.64 16 380 16" stroke="#008753" stroke-width="3" stroke-linecap="round"/>
<path d="M246 10C175.184 10 104.625 12 34 12" stroke="#008753" stroke-width="3" stroke-linecap="round"/>
<path d="M20 20C106.057 20 193.832 25.3486 279.556 17.5556C307.603 15.0058 335.813 14 364 14" stroke="#008753" stroke-width="3" stroke-linecap="round"/>
</svg>
